build/img/catalog/cloud.svg

<svg width="34" height="31" viewBox="0 0 34 31" fill="none" xmlns="http://www.w3.org/2000/svg">
<g id="Frame" clip-path="url(#clip0_556_3335)">
<path id="Vector" d="M24.6055 22.7379C23.8521 22.7379 23.0986 22.7379 22.3451 22.7379C21.6472 22.7379 21.1819 22.3269 21.1755 21.7195C21.169 21.1121 21.6317 20.6726 22.349 20.6701C23.6737 20.6701 24.9984 20.6778 26.3219 20.6701C28.9235 20.6494 31.025 18.924 31.5458 16.3922C32.192 13.2374 29.7209 10.1562 26.5054 10.1097C26.0311 10.1097 25.558 10.1097 25.0837 10.1097C24.2695 10.1097 23.8727 9.72975 23.8482 8.91423C23.7926 7.06995 23.118 5.48286 21.7687 4.23568C19.8171 2.43276 17.5127 1.90287 15.0042 2.76879C12.4956 3.63471 11.0416 5.44797 10.5776 8.0496C10.533 8.36926 10.5058 8.69113 10.4962 9.01375C10.4497 9.70778 10.0465 10.0813 9.35114 10.1058C8.5046 10.1369 7.63739 10.0877 6.81412 10.2519C4.35853 10.743 2.64478 13.0009 2.70165 15.5624C2.75722 18.018 4.62348 20.1699 7.06614 20.5796C7.44847 20.638 7.83481 20.6661 8.22157 20.6636C9.4933 20.6739 10.7638 20.6636 12.0342 20.6636C12.8562 20.6713 13.3744 21.3641 13.0966 22.0672C12.9557 22.42 12.6946 22.7017 12.3108 22.7017C10.3657 22.7017 8.40509 22.9266 6.47939 22.5634C3.06353 21.9172 0.597596 18.8025 0.631199 15.2755C0.666094 11.8067 3.21603 8.75784 6.61509 8.16721C7.14632 8.08914 7.6821 8.04597 8.21898 8.03797C8.41801 8.02892 8.49168 7.9824 8.5227 7.77949C8.83198 5.70564 9.87603 3.81193 11.4646 2.44341C13.0532 1.07488 15.0806 0.322635 17.1774 0.323732C19.2742 0.324828 21.3008 1.0792 22.8879 2.44938C24.4751 3.81957 25.5172 5.71437 25.8243 7.78853C25.8656 8.07416 26.022 8.04056 26.2017 8.03668C28.1028 8.00825 29.8023 8.58725 31.2007 9.86804C33.4599 11.9359 34.2638 14.5104 33.3979 17.4532C32.5319 20.3961 30.4718 22.1305 27.4489 22.6371C26.5222 22.7922 25.5606 22.7366 24.6146 22.7767L24.6055 22.7379Z" fill="#2B2927"/>
<path id="Vector_2" d="M18.2097 26.7199C18.7551 26.1706 19.2307 25.6859 19.7089 25.2116C20.0475 24.8717 20.4469 24.7735 20.8902 24.9531C21.0451 25.0176 21.1817 25.1193 21.2879 25.2493C21.3941 25.3792 21.4665 25.5333 21.4989 25.698C21.5312 25.8627 21.5224 26.0327 21.4733 26.1932C21.4241 26.3536 21.3362 26.4995 21.2171 26.6178C20.7984 27.0662 20.3538 27.4901 19.9247 27.9244C19.285 28.5641 18.6478 29.2065 18.0055 29.8423C17.4717 30.3709 16.8914 30.3748 16.3628 29.8501C15.3091 28.8015 14.2583 27.7503 13.2106 26.6966C12.7453 26.23 12.7182 25.5942 13.1344 25.1715C13.5505 24.7489 14.198 24.7644 14.6853 25.2439C15.1725 25.7234 15.6132 26.1732 16.147 26.7095V26.3011C16.147 23.4147 16.147 20.5283 16.147 17.6419C16.147 16.8949 16.7221 16.4103 17.4149 16.5602C17.9021 16.6649 18.2149 17.0901 18.2149 17.6626C18.2149 19.7736 18.2149 21.8845 18.2149 23.9955L18.2097 26.7199Z" fill="#2B2927"/>
</g>
<defs>
<clipPath id="clip0_556_3335">
<rect width="33.1053" height="29.9311" fill="white" transform="translate(0.631348 0.315674)"/>
</clipPath>
</defs>
</svg>

<svg width="34" height="31" fill="none" xmlns="http://www.w3.org/2000/svg"><g id="Frame" clip-path="url(#clip0_556_3335)" fill="#2B2927"><path id="Vector" d="M24.605 22.738h-2.26c-.698 0-1.163-.411-1.17-1.018-.006-.608.457-1.047 1.174-1.05 1.325 0 2.65.008 3.973 0 2.602-.02 4.703-1.746 5.224-4.278.646-3.155-1.825-6.236-5.04-6.282h-1.422c-.814 0-1.211-.38-1.236-1.196-.055-1.844-.73-3.431-2.08-4.678-1.95-1.803-4.255-2.333-6.764-1.467-2.508.866-3.962 2.679-4.426 5.28-.045.32-.072.642-.082.965-.046.694-.45 1.067-1.145 1.092-.846.03-1.714-.018-2.537.146-2.455.491-4.17 2.749-4.112 5.31.055 2.456 1.921 4.608 4.364 5.018a7.45 7.45 0 001.156.084c1.271.01 2.542 0 3.812 0 .822.007 1.34.7 1.063 1.403-.141.353-.402.635-.786.635-1.945 0-3.906.225-5.832-.139-3.415-.646-5.881-3.76-5.848-7.287.035-3.47 2.585-6.518 5.984-7.109a12.29 12.29 0 011.604-.129c.199-.01.273-.056.304-.259a8.746 8.746 0 0117.301.01c.042.285.198.252.378.248 1.9-.029 3.6.55 4.999 1.831 2.259 2.068 3.063 4.642 2.197 7.585-.866 2.943-2.926 4.678-5.95 5.184-.926.155-1.887.1-2.833.14l-.01-.04z"/><path id="Vector_2" d="M18.21 26.72c.545-.55 1.02-1.034 1.499-1.508.338-.34.738-.439 1.181-.259a1.02 1.02 0 01.327 1.665c-.419.448-.863.872-1.292 1.306-.64.64-1.277 1.282-1.92 1.918-.533.529-1.114.533-1.642.008a844.308 844.308 0 01-3.152-3.153c-.466-.467-.493-1.103-.077-1.525.416-.423 1.064-.408 1.551.072.487.48.928.93 1.462 1.465v-9.068c0-.746.575-1.23 1.268-1.08.487.104.8.53.8 1.102v6.332l-.005 2.725z"/></g><defs><clipPath id="clip0_556_3335"><path fill="#fff" transform="translate(.631 .316)" d="M0 0h33.105v29.931H0z"/></clipPath></defs></svg>
